22x22/apps/io.github.TransmissionRemoteGtk.svg

<svg xmlns="http://www.w3.org/2000/svg" width="22" height="22" version="1">
 <rect style="opacity:0.2" width="14" height="14" x="-20.5" y="-18" rx="1.5" ry="1.5" transform="matrix(0,-1,-1,0,0,0)"/>
 <rect style="fill:#cecece" width="14" height="14" x="-20" y="-18" rx="1.5" ry="1.5" transform="matrix(0,-1,-1,0,0,0)"/>
 <path style="opacity:0.2;fill:#f4f4f7" d="M 5.5,6 C 4.669,6 4,6.669 4,7.5 V 8 C 4,7.169 4.669,6.5 5.5,6.5 h 11 C 17.331,6.5 18,7.169 18,8 V 7.5 C 18,6.669 17.331,6 16.5,6 Z"/>
 <path style="fill:#4f4f4f" d="m 11,8 -4,3 h 2 v 4 H 7 l 4,3 4,-3 h -2 v -4 h 2 z"/>
 <rect style="fill:#7e7e7e" width="4" height="12" x="9" y="-13" transform="scale(1,-1)"/>
 <rect style="opacity:0.2" width="4" height="12" x="-4.5" y="-17" rx="2" ry="2" transform="matrix(0,-1,-1,0,0,0)"/>
 <rect style="fill:#db4539" width="4" height="12" x="-4" y="-17" rx="2" ry="2" transform="matrix(0,-1,-1,0,0,0)"/>
 <rect style="opacity:0.1" width="4" height=".5" x="9" y="13"/>
 <path style="opacity:0.2;fill:#f4f4f7" d="M 7,0 C 5.892,0 5,0.892 5,2 5,2.0856309 5.01407,2.1672614 5.024415,2.25 5.147908,1.262163 5.977631,0.5 7,0.5 h 8 c 1.022369,0 1.852092,0.762163 1.975586,1.75 C 16.985929,2.1672614 17,2.0856309 17,2 17,0.892 16.108,0 15,0 Z"/>
 <path style="opacity:0.1" d="M 7.666992,10.5 7,11 H 9 V 10.5 Z M 13,10.5 V 11 h 2 l -0.666992,-0.5 z m -6,4.5 4,3 4,-3 H 14.333008 L 11,17.5 7.666992,15 Z"/>
 <path style="opacity:0.2" d="m 22,20 c 0,-5 -3.5,-8.5 -8.5,-8.5 -0.75,0 -1.5,0.75 -1.5,1.5 v 7 c 0,0.75 0.75,1.5 1.5,1.5 h 7 c 0.75,0 1.5,-0.75 1.5,-1.5 z"/>
 <path style="fill:#426bcd" d="M 22,19.5 C 22,14.5 18.5,11 13.5,11 12.75,11 12,11.75 12,12.5 v 7 c 0,0.75 0.75,1.5 1.5,1.5 h 7 c 0.75,0 1.5,-0.75 1.5,-1.5 z"/>
 <path style="fill:#f4f4f7" d="m 14,13 v 0.5 c 0,0.27508 0.226735,0.5 0.5,0.5 2.4853,0 4.5,2.0147 4.5,4.5 0,0.27508 0.226735,0.5 0.5,0.5 H 20 V 18.5 C 20,15.4625 17.5375,13 14.5,13 Z m 0,2 v 0.5 c 0,0.27508 0.226735,0.5 0.5,0.5 1.3807,0 2.5,1.1193 2.5,2.5 0,0.27508 0.226735,0.5 0.5,0.5 H 18 V 18.5 C 18,16.567 16.433,15 14.5,15 Z m 1,2 c -0.5523,0 -1,0.447715 -1,1 0,0.552285 0.447715,1 1,1 0.552285,0 1,-0.447715 1,-1 0,-0.552285 -0.4477,-1 -1,-1 z"/>
</svg>

<svg xmlns="http://www.w3.org/2000/svg" width="22" height="22" version="1"><rect style="opacity:.2" width="14" height="14" x="-20.5" y="-18" rx="1.5" ry="1.5" transform="matrix(0 -1 -1 0 0 0)"/><rect style="fill:#cecece" width="14" height="14" x="-20" y="-18" rx="1.5" ry="1.5" transform="matrix(0 -1 -1 0 0 0)"/><path style="opacity:.2;fill:#f4f4f7" d="M5.5 6C4.669 6 4 6.669 4 7.5V8c0-.831.669-1.5 1.5-1.5h11c.831 0 1.5.669 1.5 1.5v-.5c0-.831-.669-1.5-1.5-1.5z"/><path style="fill:#4f4f4f" d="m11 8-4 3h2v4H7l4 3 4-3h-2v-4h2z"/><path style="fill:#7e7e7e" transform="scale(1 -1)" d="M9-13h4v12H9z"/><rect style="opacity:.2" width="4" height="12" x="-4.5" y="-17" rx="2" ry="2" transform="matrix(0 -1 -1 0 0 0)"/><rect style="fill:#db4539" width="4" height="12" x="-4" y="-17" rx="2" ry="2" transform="matrix(0 -1 -1 0 0 0)"/><path style="opacity:.1" d="M9 13h4v.5H9z"/><path style="opacity:.2;fill:#f4f4f7" d="M7 0C5.892 0 5 .892 5 2c0 .086.014.167.024.25A1.989 1.989 0 0 1 7 .5h8c1.022 0 1.852.762 1.976 1.75.01-.083.024-.164.024-.25 0-1.108-.892-2-2-2z"/><path style="opacity:.1" d="M7.667 10.5 7 11h2v-.5zm5.333 0v.5h2l-.667-.5zM7 15l4 3 4-3h-.667L11 17.5 7.667 15z"/><path style="opacity:.2" d="M22 20c0-5-3.5-8.5-8.5-8.5-.75 0-1.5.75-1.5 1.5v7c0 .75.75 1.5 1.5 1.5h7c.75 0 1.5-.75 1.5-1.5z"/><path style="fill:#426bcd" d="M22 19.5c0-5-3.5-8.5-8.5-8.5-.75 0-1.5.75-1.5 1.5v7c0 .75.75 1.5 1.5 1.5h7c.75 0 1.5-.75 1.5-1.5z"/><path style="fill:#f4f4f7" d="M14 13v.5c0 .275.227.5.5.5a4.5 4.5 0 0 1 4.5 4.5c0 .275.227.5.5.5h.5v-.5a5.5 5.5 0 0 0-5.5-5.5zm0 2v.5c0 .275.227.5.5.5a2.5 2.5 0 0 1 2.5 2.5c0 .275.227.5.5.5h.5v-.5a3.5 3.5 0 0 0-3.5-3.5zm1 2a1 1 0 1 0 0 2 1 1 0 0 0 0-2z"/></svg>
